X: 1
T: The Gael  [Dm]
C: tune: Dougie MacLean
C: descant: Trevor Jones
R: jig
Z: 2012 John Chambers <jc:trillian.mit.edu>
M: 6/8
L: 1/8
K: Ddor
|:\
"Dm"~A,2A, FED | EDC DCG, | "Dm"~A,2A, FED | EDC DCA, |\
"C"~C2C ~E2E | GEE EDE | "C"~C2C ~E2E | GEE EDE |
"Dm"~F2F FEF | GFF FED | "C"~E2E EDE | GEE EDC |\
"Dm"~D2D DCD | FED A,DD | ~D3 DCD | FED "C"EDC :|
